assets/images/svg/svg-line-chart.svg

<svg width="16" height="16" viewBox="0 0 16 16" fill="none" xmlns="http://www.w3.org/2000/svg">
<path d="M2 14.6667H16V16H2C0.897333 16 0 15.1027 0 14V0H1.33333V14C1.33333 14.3673 1.63267 14.6667 2 14.6667ZM11.3333 3.33333V4.66667H13.724L10 8.39067L7.33333 5.724L2.862 10.1953L3.80467 11.138L7.33333 7.60933L10 10.276L14.6667 5.60933V8H16V3.33333H11.3333Z" fill="#B7B7B7"/>
</svg>

<svg width="16" height="16" fill="none" xmlns="http://www.w3.org/2000/svg">
  <path d="M2 14.667h14V16H2c-1.103 0-2-.897-2-2V0h1.333v14c0 .367.3.667.667.667Zm9.333-11.334v1.334h2.391L10 8.39 7.333 5.724l-4.471 4.471.943.943 3.528-3.529L10 10.276l4.667-4.667V8H16V3.333h-4.667Z" fill="#B7B7B7"/>
</svg>
